static/app-icons/dark-theme/WatsonTalentMatchAPIs.svg

<svg xmlns="http://www.w3.org/2000/svg" viewBox="0 0 32 32"><defs><linearGradient id="linear-gradient" x1="4.618" y1="18.089" x2="11.083" y2="6.893" gradientUnits="userSpaceOnUse"><stop offset=".2" stop-opacity="0"/><stop offset=".9"/></linearGradient><linearGradient id="linear-gradient-2" x1="-4360" y1="-516" x2="-4328" y2="-548" gradientTransform="matrix(1 0 0 -1 4360 -516)" gradientUnits="userSpaceOnUse"><stop offset=".1" stop-color="#be95ff"/><stop offset=".9" stop-color="#4589ff"/></linearGradient><style>.cls-5{fill:#f4f4f4}</style><mask id="mask" x="0" y="0" width="32" height="32" maskUnits="userSpaceOnUse"><path id="GradientStroke" d="M29.878 15.521l-6-11A1 1 0 0023 4H9v2h13.406l5.455 10-5.455 10H9.594L4.139 16l4.938-9.052-1.733-1-5.222 9.573a1 1 0 000 .958l6 11A1 1 0 009 28h14a1 1 0 00.878-.521l6-11a1 1 0 000-.958z" fill="#fff"/><path fill="url(#linear-gradient)" d="M13 8L6 5 1 16h11l1-8z"/></mask></defs><g id="Layer_2" data-name="Layer 2"><g id="Dark_theme_icons" data-name="Dark theme icons"><g mask="url(#mask)"><path id="Color" transform="rotate(-90 16 16)" fill="url(#linear-gradient-2)" d="M0 0h32v32H0z"/></g><path class="cls-5" d="M16 14l-4 4-1.4-1.4 2.6-2.6-2.6-2.6L12 10zM16 18l4 4 1.4-1.4-2.6-2.6 2.6-2.6L20 14z"/></g></g></svg>

<svg xmlns="http://www.w3.org/2000/svg" xmlns:xlink="http://www.w3.org/1999/xlink" viewBox="0 0 32 32"><defs><style>.cls-1{fill:#fff;}.cls-2{fill:url(#linear-gradient);}.cls-3{mask:url(#mask);}.cls-4{fill:url(#linear-gradient-2);}.cls-5{fill:#f4f4f4;}</style><linearGradient id="linear-gradient" x1="4.618" y1="18.089" x2="11.083" y2="6.893" gradientUnits="userSpaceOnUse"><stop offset="0.2" stop-opacity="0"/><stop offset="0.9"/></linearGradient><mask id="mask" x="0" y="0" width="32" height="32" maskUnits="userSpaceOnUse"><path id="GradientStroke" class="cls-1" d="M29.878,15.521l-6-11A1,1,0,0,0,23,4H9V6H22.406l5.455,10L22.406,26H9.594L4.139,16,9.077,6.948l-1.733-1L2.122,15.521a1,1,0,0,0,0,.958l6,11A1,1,0,0,0,9,28H23a1,1,0,0,0,.878-.521l6-11A1,1,0,0,0,29.878,15.521Z"/><polygon class="cls-2" points="13 8 6 5 1 16 12 16 13 8"/></mask><linearGradient id="linear-gradient-2" x1="-4360" y1="-516" x2="-4328" y2="-548" gradientTransform="matrix(1, 0, 0, -1, 4360, -516)" gradientUnits="userSpaceOnUse"><stop offset="0.1" stop-color="#be95ff"/><stop offset="0.9" stop-color="#4589ff"/></linearGradient></defs><g id="Layer_2" data-name="Layer 2"><g id="Dark_theme_icons" data-name="Dark theme icons"><g class="cls-3"><rect id="Color" class="cls-4" width="32" height="32" transform="translate(0 32) rotate(-90)"/></g><path class="cls-5" d="M16,14l-4,4-1.4-1.4L13.2,14l-2.6-2.6L12,10Z"/><path class="cls-5" d="M16,18l4,4,1.4-1.4L18.8,18l2.6-2.6L20,14Z"/></g></g></svg>
